svg/300/sharp/no_transfer.svg

<svg xmlns="http://www.w3.org/2000/svg" width="48" height="48" viewBox="0 -960 960 960"><path d="M302.385-221.617v81.616H242.54v-101Q215.848-252 197.925-282.193q-17.924-30.192-17.924-66.115v-366.461L50.617-844.154l32.615-32.614L874.46-85.538l-32.614 32.614L652.461-242.31h65.229v102.309h-60.075v-81.616h-355.23ZM307-267h321.155L421.463-473.308H225.385v120q0 34.231 23.5 60.269Q272.385-267 307-267Zm457.614-20.925-29.999-36.076v-149.307H579.231l-45.383-45.383h200.767v-188.002H345.846l-45.383-45.383h435.691q-19.385-30.616-84.5-46.577-65.115-15.962-171.039-15.962-79.999 0-132.999 6.423t-83.615 19.654l-31-30.999q36.12-20.539 97.259-30.5 61.139-9.962 150.355-9.962 157.173 0 228.278 30.144 71.106 30.144 71.106 96.855v384.692q0 16.097-3.847 31.279-3.846 15.181-11.538 29.104Zm-434.677-34.076q20.217 0 34.294-14.167 14.076-14.167 14.076-34.384t-14.167-34.486q-14.167-14.269-34.384-14.269t-34.486 14.359q-14.269 14.36-14.269 34.577t14.359 34.293q14.36 14.077 34.577 14.077Zm-104.552-196.69h150.694L225.385-669.386v150.695Zm75.078-233.385h435.691-435.691Zm121 278.768Zm157.768 0Z"/></svg>

<svg xmlns="http://www.w3.org/2000/svg" width="48" height="48" viewBox="0 -960 960 960"><path d="M302.38-221.62V-140h-59.84v-101q-26.69-11-44.62-41.19Q180-312.39 180-348.31v-366.46L50.62-844.15l32.61-32.62L874.46-85.54l-32.61 32.62-189.39-189.39h65.23V-140h-60.07v-81.62H302.38ZM307-267h321.16l-206.7-206.31H225.39v120q0 34.23 23.5 60.27Q272.39-267 307-267Zm457.61-20.92-30-36.08v-149.31H579.23l-45.38-45.38h200.76v-188H345.85l-45.39-45.39h435.69q-19.38-30.61-84.5-46.57-65.11-15.96-171.03-15.96-80 0-133 6.42T264-788.54l-31-31q36.12-20.54 97.26-30.5Q391.4-860 480.62-860q157.17 0 228.27 30.15Q780-799.71 780-733v384.69q0 16.1-3.85 31.28-3.84 15.18-11.54 29.11ZM329.94-322q20.21 0 34.29-14.17 14.08-14.17 14.08-34.38 0-20.22-14.17-34.49-14.17-14.27-34.38-14.27-20.22 0-34.49 14.36Q281-390.59 281-370.37t14.36 34.29Q309.72-322 329.94-322ZM225.39-518.69h150.69l-150.69-150.7v150.7Zm75.07-233.39h435.69-435.69Zm121 278.77Zm157.77 0Z"/></svg>
